X: 447
T: Lucky Dick
N: Pub: J. Walsh, London, 1748
Z: 2012 John Chambers <jc:trillian.mit.edu>
N: The 2nd part has a begin-repeat but no end-repeat.
S: 2: CCD2  http://petrucci.mus.auth.gr/imglnks/usimg/6/61/IMSLP173105-PMLP149069-caledoniancountr00ingl.pdf p.69 #329
S: 4: ACMV  http://archive.org/details/acompositemusicv01rugg p.4:69 #329
M: 6/8
L: 1/8
K: A
% - - - - - - - - - - - - - - - - - - - - - - - - -
V: 1
|:\
A2a g2f | edc B3 | c2d ecA | G2A BGE |\
A2a g2f | edc B3 | c2d edc | BAG A3 :|
|:\
E2G B2e | d2c B3 | ecA e2a | g2f e3 |\
fdB df2 | ecA ce2 | dBG AdB | {c}TB3 A3 |]
% - - - - - - - - - - - - - - - - - - - - - - - - -
V: 2 clef=bass middle=d
|:\
A3 e3 | c2A e3 | a3 a3 | e3 e3 |\
A3 e3 | a2A e3 | a3 a3 | d2e A3 :|
|:\
e3 g3 | b2a g2e | a3 c'3 | e'2d' c'2a |
d'3 b3 | c'3 a3 | b3 c2d | e3 A3 |]
% - - - - - - - - - - - - - - - - - - - - - - - - -
%%begintext align
%% First Man Hey with the 1st and 2d Wo. then the 1st Wo. Hey with the 1st and 2d Man ||
%% Cross over two Cu. lead up to the top and cast off ||
%% [CCD2]
%%endtext
%%sep 1 8 500

%%sep 1 1 500
%%sep 1 1 500
